!!!OTL: 119. Ringelspiel mit Umkehr.
!!!ARE: Europa, Mitteleuropa, Deutschland, Kassel
!!!SCT: K2119A
!!!TXL: @@DE
!!!YEM: Copyright 1995, estate of Helmut Schaffrath.
**kern	**text
*clefG2	*
*M4/4	*
*met(c)	*
*k[f#c#]	*
*D:	*
{4d	Der
=1	=1
4a	Kirſchbaum
4a	.
4b/	hat
4b/	ſein
=2	=2
4.a	Laub
8g	ver-
4f#}	-lor'n,
{4d	.
=3	=3
4a	wer
4a	will
4b/	da-
4b/	-für
=4	=4
2a	ſor-
4f#}	-gen?
{4d	Das
=5	=5
4a	ſoll
4a	die
4b/	Fräulein
4b/	.
=6	=6
4.a	An-
8g	-na
4f#}	thun,
{4d	wir
=7	=7
4a	wünſchen
4a	ihr
4b/	gu-
4b/	-ten
=8	=8
2a	Morgen
4f#}	.
{8dd	gu-
8dd	-ten
=9	=9
2a	Mor-
4f#}	-gen!
{8dd	gu-
8dd	-ten
=10	=10
2a	Morgen
4f#}	.
==	==
!!!AGN: Kinder - Lied, Reigen, Tanz - Spiel
!!!ONB: ESAC (Essen Associative Code) Database: KINDER
!!!AMT: simple quadruple
!!!AIN: vox
!!!EED: Helmut Schaffrath
!!!EEV: 1.0
!!!GTL: Zweites Buch. Kinderspiel: 2. Reigen und Tanzspiele. / B. Ringeltanz mit Umkehr des Kreises.
!!Aus Kassel: Lewalter J. 34.
!!@@COMMENT:"Schlussin Darmstadt (nach Foelfing.)"
!!@@END:
!!!URL-scan: https://archive.org/details/DeutschesKinderliedUndKinderspiel/page/455/mode/1up
!!!ENC: Anna Maria Matuszewska
!!!EEV: 2024/03/09
*-	*-
